!!!OTL: OFT MANCHER MUSS LEIDEN
!!!ARE: Europa, Mitteleuropa, Deutschland, Frankfurt a.d. Oder, Neubrueck
!!!SCT: E0689
!!!YEM: Copyright 1995, estate of Helmut Schaffrath.
**kern
*ICvox
*Ivox
*M3/8
*k[b-e-]
*B-:
{8f
=1
8b-
8d
8g
=2
8g
8f}
{16b-
16cc
=3
8.dd
16b-
16dd
16cc
=4
4cc}
{8f
=5
8ee-
8ee-
8cc
=6
8dd
8dd}
{8b-
=7
8.cc
16ee-
8a
=8
4b-}
==
!!!AGN: Liebes - Lied, Leid, Klage
!!!ONB: ESAC (Essen Associative Code) Database: ERK2
!!!AMT: simple triple
!!!AIN: vox
!!!EED: Helmut Schaffrath
!!!EEV: 1.0
*-
